assets/svg/currencies/equities/FTSE.svg

<svg viewBox="0 0 300 300" fill="none" xmlns="http://www.w3.org/2000/svg">
    <path d="M150 300c82.843 0 150-67.157 150-150S232.843 0 150 0 0 67.157 0 150s67.157 150 150 150z" fill="#FFA14A"/>
    <path d="M42 115.581h44.738v12.502H56.525v15.893h24.79v11.92h-24.79v27.523H42v-67.838zm49.75 0h53.647v12.502h-19.561v55.336h-14.525v-55.336H91.75v-12.502zm69.673 45.742c.258 3.36 1.614 6.073 4.067 8.14 2.518 2.003 5.843 3.005 9.974 3.005 3.422 0 6.198-.711 8.328-2.132 2.195-1.486 3.293-3.521 3.293-6.106 0-1.809-.614-3.23-1.84-4.264-1.162-1.098-2.841-1.938-5.036-2.519-2.13-.646-5.455-1.422-9.974-2.326-4.454-.84-8.198-1.906-11.233-3.198-3.034-1.357-5.519-3.327-7.456-5.912-1.872-2.649-2.808-6.137-2.808-10.466 0-3.941 1.065-7.462 3.195-10.563 2.195-3.101 5.197-5.524 9.006-7.269 3.874-1.809 8.231-2.713 13.073-2.713 4.971 0 9.425.937 13.363 2.81 4.003 1.809 7.134 4.329 9.393 7.559 2.324 3.231 3.519 6.881 3.583 10.951h-14.235c-.322-2.907-1.549-5.233-3.679-6.977-2.131-1.809-4.939-2.714-8.425-2.714-3.228 0-5.81.679-7.747 2.035-1.937 1.357-2.905 3.295-2.905 5.815 0 1.809.581 3.23 1.743 4.264 1.162.969 2.808 1.777 4.939 2.423 2.13.581 5.422 1.292 9.877 2.132 4.519.84 8.328 1.906 11.426 3.198 3.099 1.227 5.585 3.133 7.457 5.717 1.937 2.52 2.905 5.912 2.905 10.176 0 4.135-1.13 7.85-3.389 11.145-2.26 3.23-5.423 5.782-9.49 7.656-4.003 1.873-8.522 2.81-13.557 2.81-5.423 0-10.265-.969-14.526-2.907-4.196-2.003-7.488-4.749-9.877-8.238-2.388-3.488-3.615-7.397-3.68-11.726l14.235.194zm48.999-45.742h45.513v12.502h-30.988v15.215h25.178v11.92h-25.178v15.699H257v12.502h-46.578v-67.838z" fill="#fff"/>
</svg>

<svg width="300" height="300" viewBox="0 0 300 300" fill="none" xmlns="http://www.w3.org/2000/svg">
<path d="M150 300C232.843 300 300 232.843 300 150C300 67.1573 232.843 0 150 0C67.1573 0 0 67.1573 0 150C0 232.843 67.1573 300 150 300Z" fill="#FFA14A"/>
<path d="M42 115.581L86.738 115.581V128.083H56.5253L56.5253 143.976H81.3153V155.896H56.5253L56.5253 183.419H42L42 115.581Z" fill="white"/>
<path d="M91.75 115.581H145.397V128.083H125.836L125.836 183.419H111.311L111.311 128.083H91.75V115.581Z" fill="white"/>
<path d="M161.423 161.323C161.681 164.683 163.037 167.396 165.49 169.463C168.008 171.466 171.333 172.468 175.464 172.468C178.886 172.468 181.662 171.757 183.792 170.336C185.987 168.85 187.085 166.815 187.085 164.23C187.085 162.421 186.471 161 185.245 159.966C184.083 158.868 182.404 158.028 180.209 157.447C178.079 156.801 174.754 156.025 170.235 155.121C165.781 154.281 162.037 153.215 159.002 151.923C155.968 150.566 153.483 148.596 151.546 146.011C149.674 143.362 148.738 139.874 148.738 135.545C148.738 131.604 149.803 128.083 151.933 124.982C154.128 121.881 157.13 119.458 160.939 117.713C164.813 115.904 169.17 115 174.012 115C178.983 115 183.437 115.937 187.375 117.81C191.378 119.619 194.509 122.139 196.768 125.369C199.092 128.6 200.287 132.25 200.351 136.32H186.116C185.794 133.413 184.567 131.087 182.437 129.343C180.306 127.534 177.498 126.629 174.012 126.629C170.784 126.629 168.202 127.308 166.265 128.664C164.328 130.021 163.36 131.959 163.36 134.479C163.36 136.288 163.941 137.709 165.103 138.743C166.265 139.712 167.911 140.52 170.042 141.166C172.172 141.747 175.464 142.458 179.919 143.298C184.438 144.138 188.247 145.204 191.345 146.496C194.444 147.723 196.93 149.629 198.802 152.213C200.739 154.733 201.707 158.125 201.707 162.389C201.707 166.524 200.577 170.239 198.318 173.534C196.058 176.764 192.895 179.316 188.828 181.19C184.825 183.063 180.306 184 175.271 184C169.848 184 165.006 183.031 160.745 181.093C156.549 179.09 153.257 176.344 150.868 172.855C148.48 169.367 147.253 165.458 147.188 161.129L161.423 161.323Z" fill="white"/>
<path d="M210.422 115.581L255.935 115.581V128.083L224.947 128.083V143.298L250.125 143.298V155.218L224.947 155.218V170.917L257 170.917V183.419L210.422 183.419V115.581Z" fill="white"/>
</svg>
